src/sources/forus-platform/resources/_platform-common/assets/img/features/icons/email-connection/icon-2.svg

<svg width="59" height="56" viewBox="0 0 59 56" fill="none" xmlns="http://www.w3.org/2000/svg">
    <rect x="0.5" width="58" height="55.875" rx="8" fill="#F7F9FC"/>
    <path d="M43.7705 15.5239C44.5662 15.5239 45.212 16.1693 45.212 16.9662C45.212 17.763 44.5662 18.4084 43.7705 18.4084C42.9741 18.4084 42.3291 17.763 42.3291 16.9662C42.3291 16.1693 42.9741 15.5239 43.7705 15.5239Z" fill="#305DFC"/>
    <path d="M17.4639 37.1573C18.4585 37.1573 19.2657 37.9642 19.2657 38.9601C19.2657 39.9559 18.4585 40.7629 17.4639 40.7629C16.4686 40.7629 15.6621 39.9559 15.6621 38.9601C15.6621 37.9643 16.4686 37.1573 17.4639 37.1573Z" fill="#305DFC"/>
    <path d="M36.6589 29.2195C39.3131 29.2195 41.4652 31.3729 41.4652 34.0292C41.4652 36.6849 39.3132 38.8381 36.6589 38.8381C34.0039 38.8381 31.8525 36.685 31.8525 34.0292C31.8526 31.3729 34.0039 29.2195 36.6589 29.2195ZM39.5278 34.0292C39.5278 32.4436 38.2437 31.158 36.6589 31.158C35.0742 31.158 33.79 32.4436 33.79 34.0292C33.79 35.6142 35.0741 36.8998 36.6589 36.8998C38.2437 36.8997 39.5278 35.6141 39.5278 34.0292Z" fill="#0A33C1"/>
    <path d="M39.8058 25.7204C39.9962 25.7918 40.1828 25.8704 40.3658 25.9548L40.4531 27.4526L41.7885 26.7776C42.6081 27.3588 43.3245 28.0755 43.9024 28.8926L43.2279 30.2324L44.7284 30.316C45.1378 31.2102 45.4058 32.1824 45.4995 33.2056L44.2477 34.0291L45.4995 34.8491C45.4058 35.8723 45.1377 36.8473 44.7248 37.7385L43.2278 37.8258L43.9023 39.162C43.3214 39.982 42.608 40.6959 41.7921 41.2763L40.453 40.602L40.3658 42.0998C39.475 42.513 38.5042 42.7813 37.4808 42.875L36.6585 41.6188L35.8354 42.875C34.8128 42.7813 33.8412 42.513 32.9511 42.0998L32.8638 40.602L31.5247 41.2763C30.7081 40.6959 29.9917 39.982 29.4145 39.162L30.0856 37.8258L28.5886 37.7385C28.1785 36.8473 27.9111 35.8723 27.8174 34.8519L29.0693 34.0291L27.8174 33.2056C27.905 32.2362 28.1593 31.2521 28.5886 30.3161L30.0856 30.2325L29.4145 28.8926C29.9918 28.0756 30.7081 27.3589 31.5247 26.7777L32.8638 27.4526L32.9511 25.9549C33.8412 25.5446 34.8127 25.277 35.8354 25.1833L36.6585 26.4359L37.4808 25.1833C38.2909 25.2575 39.0721 25.4421 39.8058 25.7204ZM41.1284 34.0291C41.1284 31.5586 39.1269 29.5561 36.6585 29.5561C34.1893 29.5561 32.1885 31.5587 32.1885 34.0291C32.1885 36.499 34.1893 38.5015 36.6585 38.5015C39.1269 38.5014 41.1284 36.499 41.1284 34.0291Z" fill="#305DFC"/>
    <path d="M32.9521 25.9548L32.8648 27.4526L31.5257 26.7776C30.7091 27.3588 29.9927 28.0756 29.4155 28.8926L30.0865 30.2324L28.5895 30.3161C28.24 31.0783 27.9942 31.8968 27.8717 32.7549H15.5927C14.9513 32.7549 14.3768 32.4657 13.9941 32.0113L23.8378 23.058L26.8842 25.8286L30.0223 23.0573L32.9521 25.9548Z" fill="#C4D1FF"/>
    <path d="M39.806 15.4539V25.7204C39.0723 25.4421 38.291 25.2575 37.4809 25.1832L36.6586 26.4358L35.8355 25.1832C34.8129 25.277 33.8413 25.5445 32.9512 25.9548L30.0215 23.0574L39.6179 14.5864C39.739 14.8504 39.806 15.1446 39.806 15.4539Z" fill="#E6ECFF"/>
    <path d="M13.9937 14.1041L23.8373 23.0582L13.9937 32.0115C13.6852 31.6467 13.5 31.1764 13.5 30.6616V15.454C13.5 14.9398 13.6852 14.4689 13.9937 14.1041Z" fill="#E6ECFF"/>
    <path d="M13.9941 14.1041C14.3768 13.6498 14.9513 13.3606 15.5927 13.3606H37.7145C38.5606 13.3606 39.2893 13.8632 39.6187 14.5865C39.6107 14.5936 26.8949 25.8192 26.8842 25.8287C26.292 25.29 14.0019 14.1111 13.9941 14.1041Z" fill="#305DFC"/>
    <path d="M43.9507 14.0817C44.2492 14.0817 44.4912 13.8395 44.4912 13.5408C44.4912 13.2421 44.2492 13 43.9507 13C43.6522 13 43.4102 13.2421 43.4102 13.5408C43.4102 13.8395 43.6522 14.0817 43.9507 14.0817Z" fill="#9CB8F8"/>
    <path d="M43.9507 22.3744C44.2492 22.3744 44.4912 22.1323 44.4912 21.8336C44.4912 21.5349 44.2492 21.2928 43.9507 21.2928C43.6522 21.2928 43.4102 21.5349 43.4102 21.8336C43.4102 22.1323 43.6522 22.3744 43.9507 22.3744Z" fill="#9CB8F8"/>
    <path d="M43.9507 41.4841C44.2491 41.4841 44.4912 41.7263 44.4912 42.0249C44.4912 42.3234 44.2491 42.5657 43.9507 42.5657C43.6523 42.5657 43.4102 42.3234 43.4102 42.0249C43.4102 41.7264 43.6523 41.4841 43.9507 41.4841Z" fill="#9CB8F8"/>
    <path d="M28.815 41.4841C29.1133 41.4841 29.3555 41.7263 29.3555 42.0249C29.3555 42.3234 29.1133 42.5657 28.815 42.5657C28.5166 42.5657 28.2744 42.3234 28.2744 42.0249C28.2744 41.7264 28.5166 41.4841 28.815 41.4841Z" fill="#9CB8F8"/>
    <path d="M23.4097 35.7151C23.7081 35.7151 23.9502 35.9574 23.9502 36.256C23.9502 36.5544 23.7081 36.7968 23.4097 36.7968C23.1113 36.7968 22.8691 36.5544 22.8691 36.256C22.8691 35.9574 23.1113 35.7151 23.4097 35.7151Z" fill="#9CB8F8"/>
    <path d="M14.7612 41.4841C15.0596 41.4841 15.3018 41.7263 15.3018 42.0249C15.3018 42.3234 15.0596 42.5657 14.7612 42.5657C14.4629 42.5657 14.2207 42.3234 14.2207 42.0249C14.2207 41.7264 14.4629 41.4841 14.7612 41.4841Z" fill="#9CB8F8"/>
    <path d="M32.4218 15.309H21.3457C21.1467 15.309 20.9854 15.4705 20.9854 15.6696C20.9854 15.8687 21.1467 16.0301 21.3457 16.0301H32.4218C32.6208 16.0301 32.7821 15.8687 32.7821 15.6696C32.7821 15.4705 32.6208 15.309 32.4218 15.309Z" fill="white"/>
    <path d="M31.0375 17.1558H22.7305C22.5315 17.1558 22.3701 17.3173 22.3701 17.5164C22.3701 17.7155 22.5315 17.8769 22.7305 17.8769H31.0375C31.2366 17.8769 31.3979 17.7155 31.3979 17.5164C31.3979 17.3173 31.2366 17.1558 31.0375 17.1558Z" fill="white"/>
    <path d="M29.1917 19.0033H24.5762C24.3772 19.0033 24.2158 19.1648 24.2158 19.3639C24.2158 19.563 24.3772 19.7244 24.5762 19.7244H29.1917C29.3907 19.7244 29.552 19.563 29.552 19.3639C29.552 19.1648 29.3907 19.0033 29.1917 19.0033Z" fill="white"/>
</svg>

<svg width="59" height="56" fill="none" xmlns="http://www.w3.org/2000/svg"><rect x=".5" width="58" height="55.875" rx="8" fill="#F7F9FC"/><path d="M43.77 15.524a1.442 1.442 0 1 1 0 2.884 1.442 1.442 0 0 1 0-2.884ZM17.464 37.157a1.802 1.802 0 1 1-.001 3.605 1.802 1.802 0 0 1 0-3.605Z" fill="#305DFC"/><path d="M36.659 29.22a4.808 4.808 0 0 1 4.806 4.81 4.807 4.807 0 1 1-9.613 0 4.808 4.808 0 0 1 4.807-4.81Zm2.869 4.81a2.87 2.87 0 1 0-2.87 2.87 2.87 2.87 0 0 0 2.87-2.87Z" fill="#0A33C1"/><path d="M39.806 25.72c.19.072.377.15.56.235l.087 1.498 1.335-.675a8.89 8.89 0 0 1 2.114 2.115l-.674 1.34 1.5.083c.41.894.678 1.866.771 2.89l-1.251.823 1.252.82a8.773 8.773 0 0 1-.775 2.89l-1.497.087.674 1.336a8.926 8.926 0 0 1-2.11 2.114l-1.339-.674-.087 1.498a8.737 8.737 0 0 1-2.885.775l-.823-1.256-.823 1.256a8.733 8.733 0 0 1-2.884-.775l-.087-1.498-1.34.674a8.845 8.845 0 0 1-2.11-2.114l.672-1.336-1.497-.087a8.84 8.84 0 0 1-.772-2.887l1.252-.823-1.252-.823c.088-.97.342-1.954.772-2.89l1.497-.083-.671-1.34a8.92 8.92 0 0 1 2.11-2.115l1.339.675.087-1.498a8.8 8.8 0 0 1 2.884-.772l.823 1.253.823-1.253c.81.075 1.591.26 2.325.537Zm1.322 8.31a4.471 4.471 0 1 0-8.94 0 4.471 4.471 0 1 0 8.94 0Z" fill="#305DFC"/><path d="m32.952 25.955-.087 1.498-1.34-.675a8.918 8.918 0 0 0-2.11 2.115l.672 1.34-1.497.083a8.844 8.844 0 0 0-.718 2.439h-12.28c-.64 0-1.215-.29-1.598-.744l9.844-8.953 3.046 2.77 3.138-2.77 2.93 2.897Z" fill="#C4D1FF"/><path d="M39.806 15.454V25.72a8.83 8.83 0 0 0-2.325-.537l-.822 1.253-.823-1.253a8.803 8.803 0 0 0-2.885.772l-2.93-2.898 9.597-8.47c.121.263.188.558.188.867ZM13.994 14.104l9.843 8.954-9.843 8.953a2.081 2.081 0 0 1-.494-1.35V15.455c0-.514.185-.985.494-1.35Z" fill="#E6ECFF"/><path d="M13.994 14.104a2.086 2.086 0 0 1 1.599-.743h22.122c.846 0 1.574.502 1.904 1.225L26.884 25.83l-12.89-11.725Z" fill="#305DFC"/><path d="M43.95 14.082a.54.54 0 1 0 0-1.082.54.54 0 0 0 0 1.082ZM43.95 22.374a.54.54 0 1 0 0-1.08.54.54 0 0 0 0 1.08ZM43.95 41.484a.54.54 0 1 1 0 1.082.54.54 0 0 1 0-1.082ZM28.815 41.484a.54.54 0 1 1 0 1.082.54.54 0 0 1 0-1.082ZM23.41 35.715a.54.54 0 1 1-.001 1.082.54.54 0 0 1 0-1.082ZM14.761 41.484a.54.54 0 1 1 0 1.082.54.54 0 0 1 0-1.082Z" fill="#9CB8F8"/><path d="M32.422 15.309H21.346a.36.36 0 0 0 0 .721h11.076a.36.36 0 0 0 0-.721ZM31.038 17.156H22.73a.36.36 0 0 0 0 .72h8.308a.36.36 0 0 0 0-.72ZM29.192 19.003h-4.616a.36.36 0 0 0 0 .721h4.616a.36.36 0 0 0 0-.72Z" fill="#fff"/></svg>
